X:1
T:Have Compassion, Lord, on Me!
T:John Robson Sweney (1837-1899)
T:Have Compassion, Lord, on Me!
T:Public Domain
T:Public Domain
T:Public Domain
C:John Robson Sweney (1837-1899)
Z:Public Domain
%%score ( 1 2 ) ( 3 4 )
L:1/8
M:9/8
K:Db
V:1 treble 
V:2 treble 
V:3 bass 
V:4 bass 
V:1
 [DA]2 [DF] | [DB]3 [DA]3 [DF]2 D | [DF]3 [CE]3 [CE]2 [DF] | [EG]3 [CE]3 [Gc]2 [GB] | %4
w: 1.~O my|Sav- ior, I am|y! Let my cry|to Thee a- scend|
w: 2.~O my|Sav- ior, tho’ un-|thy, I have no-|where else to go;|
w: 3.~O my|Sav- ior, by Thy|it Thou hast called|me o’er and o’er;|
w: 4.~O my|Sav- ior, do not|me Here to per-|ish at Thy throne;|
 [FA]6 [DA]2 [DF] | [DB]3 [DA]3 [DF]2 D | [DF]3 [CE]3 [CE]2 [DF] | [CG]3 [A,C]3 [A,F]2 [A,E] | %8
w: While in hum-|ble sup- pli- ca-|Now be- fore Thy|throne I bend! *|
w: Thou canst par-|don my trans- gress-|Thou canst wash me|white as snow! Weak|
w: Now re- pent-|ant I am com-|Lord, my wan- d’ring|soul re- store! *|
w: In Thy ten-|der, lov- ing mer-|Cleanse and make me|all Thine own! *|
 [A,D]6 ||"^Refrain" (AF)d | (G2 G) (E2 E) (GE)c | (=E2 E) (F2 F) [DF]2 [DA] | %12
w: ||||
w: and|help- * less,|yet * be- * liev- * ing,|all * my * care on|
w: ||||
w: ||||
 [CA]3- [CA]2 [EG] [DF]2 [CE] | [DF]6 (AF)d | (G2 G) (E2 E) (GE)c | (=E2 E) (F2 F) D2 F | %16
w: ||||
w: am * hop- ing, trust-|ing, pray- * ing;|Have * com- * pass- * ion,|me! * * * * *|
w: ||||
w: ||||
 (B2 A) (F2 D) [A,F]2 [A,E] | [A,D]6 |] %18
w: ||
w: ||
w: ||
w: ||
V:2
 x3 | x8 D | x9 | x9 | x9 | x8 D | x9 | x9 | x6 || x3 | c3 G3 x3 | B3 A3 x3 | x9 | x9 | c3 G3 x3 | %15
w: |wear-||||tion||||||||||
w: |wor-||||ions,|||||Cast- ing|Thee, I|||Lord, on|
w: |Spir-||||ing;||||||||||
w: |leave||||cy||||||||||
 B3 A3 D2 F | B2 A F2 D x3 | x6 |] %18
w: |||
w: |||
w: |||
w: |||
V:3
 [D,F,]2 [D,A,] | [D,G,]3 [D,F,]3 [D,A,]2 [F,A,] | A,3 [A,,A,]3 [A,,A,]2 [A,,A,] | %3
w: ~ ~|~ ~ ~ ~|~ ~ ~ ~|
 [A,,A,]3 [A,,A,]3 [A,,A,]2 [A,,C] | [D,D]6 [D,F,]2 [D,A,] | [D,G,]3 [D,F,]3 [D,A,]2 [F,A,] | %6
w: ~ ~ ~ ~|~ ~ ~|~ ~ ~ ~|
 A,3 [A,,A,]3 [A,,A,]2 [A,,A,] | [A,,E,]3 [A,,G,]3 [A,,G,]2 [A,,G,] | [D,F,]6 || z3 | %10
w: ~ ~ ~ ~|~ ~ ~ Weak|and||
 [A,E]2 [A,E] [A,C]2 [A,C] z3 | [D,D]2 [D,D] [D,D]2 [D,D] [D,A,]2 [D,F,] | %12
w: help- less, yet be-|lieving ~ ~ ~ ~ ~|
 [A,,E,]3- [A,,E,]2 [A,,A,] [A,,A,]2 [A,,A,] | [D,A,]6 z3 | [A,E]2 [A,E] [A,C]2 [A,C] z3 | %15
w: ~ * ~ ~ I|am|hop- ing, trust- ing,|
 [D,D]2 [D,D] [D,D]2 [D,D] D,2 F, | (B,2 A,) (F,2 D,) [A,,G,]2 [A,,G,] | [D,F,]6 |] %18
w: pray- ing; * * * *|||
V:4
 x3 | x9 | A,3 x6 | x9 | x9 | x9 | A,3 x6 | x9 | x6 || x3 | x9 | x9 | x9 | x9 | x9 | x6 D,2 F, | %16
w: ||~||||~||||||||||
 B,2 A, F,2 D, x3 | x6 |] %18
w: ||

